X: 10147
T: Dine Like Kings
R: reel
M: 4/4
K: Eminor
d|:zd zd deg2|e2dB dege|a2aa aged|e6 d2|
zd zd deg2|e2dB dege|gaad' baag|1 ed e4 d2:|2 ed e6||
|:e3 e edBA|GEGE AEAE|B2 BB BAAA|AGED E2 B/c/d|
e3 e edBA|GEGE AEAE|B2 BB BAAA|1 AGED E2 B/c/d:|2 AGED E4||

